X:395
T:
R:polska
S:Efter »Florsen» i Burs.
O:Gotland, Burs
M:3/4
L:1/16
K:F
cB|LAcfa gefd cABG|LAcfa gbeg g2f2|LAfcf Afcf Afcf|
LBfdf Bfdf Bfdf|LAfcf Afcf Afcf|LBfdf Bfdf Bfdf|
ecba gfed cBAG|Afeg g4 f2::c'2|Lc'bab c'efg a^cde|
fABc dcBA B4|Lbaga befg fede|fefa gfed d2c2|
LAcfc facf facf|egbg agfe f4|Acfc faAf faAf|
egbg agfe f4|Lcbga gaeg fABd|cBAG G4 F2:|

